svg/aws-ec2-m1-mac.svg

<?xml version="1.0" encoding="UTF-8"?>
<svg xmlns="http://www.w3.org/2000/svg" xmlns:xlink="http://www.w3.org/1999/xlink" width="32" height="32" viewBox="0 0 32 32">
<path fill-rule="evenodd" fill="rgb(83.137255%, 35.686275%, 2.745098%)" fill-opacity="1" d="M 6 26 L 26 26 L 26 6 L 6 6 Z M 27.332031 8.667969 L 27.332031 11.332031 L 30.667969 11.332031 L 30.667969 12.667969 L 27.332031 12.667969 L 27.332031 15.332031 L 30.667969 15.332031 L 30.667969 16.667969 L 27.332031 16.667969 L 27.332031 19.332031 L 30.667969 19.332031 L 30.667969 20.667969 L 27.332031 20.667969 L 27.332031 23.332031 L 30.667969 23.332031 L 30.667969 24.667969 L 27.332031 24.667969 L 27.332031 26.667969 C 27.332031 27.035156 27.035156 27.332031 26.667969 27.332031 L 24.667969 27.332031 L 24.667969 30.667969 L 23.332031 30.667969 L 23.332031 27.332031 L 20.667969 27.332031 L 20.667969 30.667969 L 19.332031 30.667969 L 19.332031 27.332031 L 16.667969 27.332031 L 16.667969 30.667969 L 15.332031 30.667969 L 15.332031 27.332031 L 12.667969 27.332031 L 12.667969 30.667969 L 11.332031 30.667969 L 11.332031 27.332031 L 8.667969 27.332031 L 8.667969 30.667969 L 7.332031 30.667969 L 7.332031 27.332031 L 5.332031 27.332031 C 4.964844 27.332031 4.667969 27.035156 4.667969 26.667969 L 4.667969 24.667969 L 1.332031 24.667969 L 1.332031 23.332031 L 4.667969 23.332031 L 4.667969 20.667969 L 1.332031 20.667969 L 1.332031 19.332031 L 4.667969 19.332031 L 4.667969 16.667969 L 1.332031 16.667969 L 1.332031 15.332031 L 4.667969 15.332031 L 4.667969 12.667969 L 1.332031 12.667969 L 1.332031 11.332031 L 4.667969 11.332031 L 4.667969 8.667969 L 1.332031 8.667969 L 1.332031 7.332031 L 4.667969 7.332031 L 4.667969 5.332031 C 4.667969 4.964844 4.964844 4.667969 5.332031 4.667969 L 7.332031 4.667969 L 7.332031 1.332031 L 8.667969 1.332031 L 8.667969 4.667969 L 11.332031 4.667969 L 11.332031 1.332031 L 12.667969 1.332031 L 12.667969 4.667969 L 15.332031 4.667969 L 15.332031 1.332031 L 16.667969 1.332031 L 16.667969 4.667969 L 19.332031 4.667969 L 19.332031 1.332031 L 20.667969 1.332031 L 20.667969 4.667969 L 23.332031 4.667969 L 23.332031 1.332031 L 24.667969 1.332031 L 24.667969 4.667969 L 26.667969 4.667969 C 27.035156 4.667969 27.332031 4.964844 27.332031 5.332031 L 27.332031 7.332031 L 30.667969 7.332031 L 30.667969 8.667969 Z M 20.386719 21.542969 C 20.722656 21.90625 21.203125 22.089844 21.828125 22.089844 C 22.265625 22.089844 22.640625 22.003906 22.957031 21.839844 L 22.957031 21.175781 C 22.613281 21.28125 22.300781 21.335938 22.011719 21.335938 C 21.613281 21.335938 21.316406 21.230469 21.128906 21.015625 C 20.9375 20.800781 20.84375 20.472656 20.84375 20.023438 L 20.84375 19.921875 C 20.84375 19.464844 20.9375 19.132812 21.128906 18.914062 C 21.316406 18.699219 21.613281 18.59375 22.011719 18.59375 C 22.261719 18.59375 22.566406 18.644531 22.925781 18.742188 L 22.925781 18.078125 C 22.59375 17.917969 22.226562 17.835938 21.859375 17.839844 C 21.234375 17.839844 20.75 18.03125 20.402344 18.40625 C 20.058594 18.785156 19.882812 19.316406 19.882812 20 C 19.882812 20.667969 20.050781 21.179688 20.386719 21.542969 M 18.234375 20.296875 C 17.996094 20.242188 17.75 20.210938 17.503906 20.207031 C 16.960938 20.207031 16.691406 20.425781 16.691406 20.855469 C 16.691406 21.042969 16.742188 21.1875 16.847656 21.292969 C 16.964844 21.398438 17.121094 21.457031 17.277344 21.449219 C 17.429688 21.449219 17.585938 21.414062 17.753906 21.347656 C 17.917969 21.28125 18.078125 21.1875 18.234375 21.0625 Z M 16.011719 18.136719 C 16.210938 18.035156 16.457031 17.953125 16.75 17.894531 C 17.039062 17.835938 17.332031 17.808594 17.625 17.808594 C 18.15625 17.808594 18.546875 17.914062 18.800781 18.128906 C 19.054688 18.339844 19.179688 18.675781 19.179688 19.128906 L 19.179688 22 L 18.355469 22 L 18.285156 21.609375 C 18.097656 21.769531 17.890625 21.894531 17.664062 21.984375 C 17.449219 22.074219 17.21875 22.121094 16.988281 22.121094 C 16.613281 22.121094 16.3125 22.007812 16.078125 21.785156 C 15.847656 21.558594 15.734375 21.269531 15.734375 20.910156 C 15.734375 20.515625 15.875 20.203125 16.160156 19.96875 C 16.445312 19.734375 16.828125 19.617188 17.308594 19.617188 C 17.589844 19.617188 17.902344 19.65625 18.234375 19.734375 L 18.234375 19.265625 C 18.234375 18.992188 18.179688 18.800781 18.0625 18.695312 C 17.941406 18.589844 17.738281 18.535156 17.445312 18.535156 C 17.027344 18.535156 16.550781 18.625 16.011719 18.800781 Z M 10.324219 17.863281 L 11.714844 20.609375 L 12.597656 20.609375 L 14.035156 17.847656 L 14.035156 22 L 14.933594 22 L 14.933594 16.457031 L 13.875 16.457031 L 12.179688 19.761719 L 10.515625 16.457031 L 9.429688 16.457031 L 9.429688 22 L 10.324219 22 Z M 19.265625 15.332031 L 20.214844 15.332031 L 20.214844 9.789062 L 19.351562 9.789062 L 17.769531 10.523438 L 17.769531 11.292969 L 19.265625 10.734375 Z M 11.886719 15.332031 L 10.992188 15.332031 L 10.992188 9.789062 L 12.078125 9.789062 L 13.742188 13.09375 L 15.441406 9.789062 L 16.496094 9.789062 L 16.496094 15.332031 L 15.601562 15.332031 L 15.601562 11.179688 L 14.160156 13.941406 L 13.28125 13.941406 L 11.886719 11.199219 Z M 11.886719 15.332031 "/>
</svg>

<svg role="img" viewBox="0 0 32 32" xmlns="http://www.w3.org/2000/svg"><path d="M6 26h20V6H6ZM27.332 8.668v2.664h3.336v1.336h-3.336v2.664h3.336v1.336h-3.336v2.664h3.336v1.336h-3.336v2.664h3.336v1.336h-3.336v2a.664.664 0 0 1-.664.664h-2v3.336h-1.336v-3.336h-2.664v3.336h-1.336v-3.336h-2.664v3.336h-1.336v-3.336h-2.664v3.336h-1.336v-3.336H8.668v3.336H7.332v-3.336h-2a.664.664 0 0 1-.664-.664v-2H1.332v-1.336h3.336v-2.664H1.332v-1.336h3.336v-2.664H1.332v-1.336h3.336v-2.664H1.332v-1.336h3.336V8.668H1.332V7.332h3.336v-2c0-.367.297-.664.664-.664h2V1.332h1.336v3.336h2.664V1.332h1.336v3.336h2.664V1.332h1.336v3.336h2.664V1.332h1.336v3.336h2.664V1.332h1.336v3.336h2c.367 0 .664.297.664.664v2h3.336v1.336Zm-6.945 12.875q.504.546 1.441.547.656-.002 1.129-.25v-.664c-.344.105-.656.16-.945.16-.399 0-.696-.106-.883-.32-.192-.215-.285-.543-.285-.993v-.101c0-.457.093-.79.285-1.008q.283-.321.883-.32.374 0 .914.148v-.664a2.4 2.4 0 0 0-1.067-.238q-.936.002-1.457.566c-.343.38-.52.91-.52 1.594q0 1 .505 1.543m-2.153-1.246a3.6 3.6 0 0 0-.73-.09c-.543 0-.813.219-.813.648q-.001.28.157.438a.6.6 0 0 0 .43.156q.226-.001.476-.101.246-.099.48-.285Zm-2.222-2.16q.299-.154.738-.242.435-.088.875-.086.796-.001 1.176.32c.254.21.379.547.379 1V22h-.825l-.07-.39q-.28.24-.62.374a1.8 1.8 0 0 1-.677.137c-.375 0-.675-.113-.91-.336q-.344-.337-.344-.875 0-.59.426-.941.428-.352 1.149-.352c.28 0 .593.04.925.117v-.468c0-.274-.054-.465-.172-.57q-.179-.16-.617-.16-.626 0-1.433.265Zm-5.688-.274 1.39 2.746h.884l1.437-2.761V22h.899v-5.543h-1.059l-1.695 3.305-1.664-3.305H9.43V22h.894Zm8.942-2.531h.949V9.789h-.863l-1.582.734v.77l1.496-.559Zm-7.38 0h-.894V9.789h1.086l1.664 3.305 1.7-3.305h1.054v5.543h-.894V11.18l-1.442 2.76h-.879l-1.394-2.74Zm0 0" fill="rgb(83.137256%, 35.686275%, 2.745098%)" fill-rule="evenodd"/></svg>
